fs/tasks_app_20_filled.svg

<svg viewBox="0 0 20 20" fill="none" xmlns="http://www.w3.org/2000/svg" height="1em" width="1em">
  <path d="M4 4C4 2.89543 4.89543 2 6 2H14C15.1046 2 16 2.89543 16 4V13.883L13.5053 16.4027L12.5711 15.4499C11.9912 14.8583 11.0415 14.8489 10.4499 15.4289C9.85834 16.0088 9.84893 16.9586 10.4289 17.5501L10.87 18H6C4.89543 18 4 17.1046 4 16V4ZM9 9.5C9 9.77614 9.22386 10 9.5 10H13.5C13.7761 10 14 9.77614 14 9.5C14 9.22386 13.7761 9 13.5 9H9.5C9.22386 9 9 9.22386 9 9.5ZM9.5 5C9.22386 5 9 5.22386 9 5.5C9 5.77614 9.22386 6 9.5 6H13.5C13.7761 6 14 5.77614 14 5.5C14 5.22386 13.7761 5 13.5 5H9.5ZM9 13.5C9 13.7761 9.22386 14 9.5 14H13.5C13.7761 14 14 13.7761 14 13.5C14 13.2239 13.7761 13 13.5 13H9.5C9.22386 13 9 13.2239 9 13.5ZM7 10.5C7.55228 10.5 8 10.0523 8 9.5C8 8.94772 7.55228 8.5 7 8.5C6.44772 8.5 6 8.94772 6 9.5C6 10.0523 6.44772 10.5 7 10.5ZM8 5.5C8 4.94772 7.55228 4.5 7 4.5C6.44772 4.5 6 4.94772 6 5.5C6 6.05228 6.44772 6.5 7 6.5C7.55228 6.5 8 6.05228 8 5.5ZM7 14.5C7.55228 14.5 8 14.0523 8 13.5C8 12.9477 7.55228 12.5 7 12.5C6.44772 12.5 6 12.9477 6 13.5C6 14.0523 6.44772 14.5 7 14.5ZM17.8553 14.8518C18.0496 14.6556 18.048 14.339 17.8518 14.1447C17.6556 13.9504 17.339 13.952 17.1447 14.1482L13.5018 17.8276L11.857 16.15C11.6637 15.9528 11.3471 15.9496 11.15 16.143C10.9528 16.3363 10.9496 16.6529 11.143 16.85L13.0719 18.8176C13.3063 19.0567 13.6911 19.0576 13.9267 18.8197L17.8553 14.8518Z" fill="#212121"/>
</svg>

<svg viewBox="0 0 20 20" fill="none" xmlns="http://www.w3.org/2000/svg" height="1em" width="1em">
  <path d="M4 4a2 2 0 0 1 2-2h8a2 2 0 0 1 2 2v9.883l-2.495 2.52-.934-.953a1.5 1.5 0 1 0-2.142 2.1l.441.45H6a2 2 0 0 1-2-2V4Zm5 5.5a.5.5 0 0 0 .5.5h4a.5.5 0 0 0 0-1h-4a.5.5 0 0 0-.5.5ZM9.5 5a.5.5 0 0 0 0 1h4a.5.5 0 0 0 0-1h-4ZM9 13.5a.5.5 0 0 0 .5.5h4a.5.5 0 0 0 0-1h-4a.5.5 0 0 0-.5.5Zm-2-3a1 1 0 1 0 0-2 1 1 0 0 0 0 2Zm1-5a1 1 0 1 0-2 0 1 1 0 0 0 2 0Zm-1 9a1 1 0 1 0 0-2 1 1 0 0 0 0 2Zm10.855.352a.5.5 0 0 0-.71-.704l-3.643 3.68-1.645-1.678a.5.5 0 1 0-.714.7l1.929 1.968a.6.6 0 0 0 .855.002l3.928-3.968Z" fill="#212121"/>
</svg>
